src/components/00-materials/images-raw/Baby.svg

<svg width="96" height="96" viewBox="0 0 96 96" fill="none" xmlns="http://www.w3.org/2000/svg">
<path d="M34.11 74.27V78.87M68.61 30.64C67.2896 26.2177 64.5629 22.3468 60.8434 19.6145C57.1239 16.8822 52.6148 15.4376 48 15.5C43.4085 15.4539 38.9259 16.8977 35.2244 19.6148C31.5229 22.3318 28.8021 26.1758 27.47 30.57M68.61 30.64C68.8639 30.5897 69.1214 30.5596 69.38 30.55C70.9399 30.6278 72.4059 31.3188 73.4585 32.4726C74.5112 33.6265 75.0653 35.1495 75 36.71C75.0653 38.2705 74.5112 39.7935 73.4585 40.9473C72.4059 42.1011 70.9399 42.7922 69.38 42.87C68.9793 42.8691 68.58 42.8221 68.19 42.73M68.61 30.64C69.765 34.6114 69.6178 38.8483 68.19 42.73M27.9 42.8C29.4837 46.8583 32.2571 50.3433 35.8563 52.7977C39.4555 55.2521 43.7125 56.5614 48.069 56.5538C52.4254 56.5463 56.6778 55.2222 60.2685 52.7553C63.8591 50.2884 66.6204 46.7938 68.19 42.73" stroke="#00008F" stroke-width="2" stroke-linecap="round" stroke-linejoin="round"/>
<path d="M27.31 42.87C27.5081 42.8613 27.7053 42.8379 27.9 42.8C26.4367 38.8773 26.2858 34.5857 27.47 30.57H27.31M56.82 22.34C54.05 22.34 51.82 18.89 51.82 15.87M54.31 26.45C49.46 26.45 45.52 21.16 45.52 15.87M24.33 76.94L37.17 79.47C44.557 80.8401 52.133 80.8401 59.52 79.47L72.36 76.94M62.58 74.27V78.87" stroke="#00008F" stroke-width="2" stroke-linecap="round" stroke-linejoin="round"/>
<path d="M24.33 76.94C24.33 63.68 35.08 56.48 48.33 56.48C61.58 56.48 72.33 63.68 72.33 76.94M54.57 57.37C54.6036 58.2085 54.4675 59.0451 54.1698 59.8296C53.8721 60.6142 53.419 61.3306 52.8376 61.9357C52.2563 62.5408 51.5587 63.0223 50.7867 63.3511C50.0146 63.68 49.1841 63.8495 48.345 63.8495C47.5059 63.8495 46.6754 63.68 45.9033 63.3511C45.1313 63.0223 44.4337 62.5408 43.8524 61.9357C43.271 61.3306 42.8179 60.6142 42.5202 59.8296C42.2225 59.0451 42.0864 58.2085 42.12 57.37M27.81 42.73C27.42 42.8221 27.0207 42.8691 26.62 42.87C25.0601 42.7922 23.5941 42.1011 22.5415 40.9473C21.4888 39.7935 20.9347 38.2705 21 36.71C20.9349 35.1445 21.4931 33.6171 22.5521 32.4625C23.6112 31.3078 25.0848 30.6201 26.65 30.55C26.9086 30.5596 27.1661 30.5897 27.42 30.64" stroke="#00008F" stroke-width="2" stroke-linecap="round" stroke-linejoin="round"/>
</svg>

<svg width="96" height="96" viewBox="0 0 96 96" fill="none" xmlns="http://www.w3.org/2000/svg"><path d="M34.11 74.27v4.6m34.5-48.23A21.21 21.21 0 0048 15.5a21.23 21.23 0 00-20.53 15.07m41.14.07c.254-.05.511-.08.77-.09A5.92 5.92 0 0175 36.71a5.92 5.92 0 01-5.62 6.16c-.4 0-.8-.048-1.19-.14m.42-12.09a19.36 19.36 0 01-.42 12.09m-40.29.07a21.61 21.61 0 0040.29-.07" stroke="#00008F" stroke-width="2" stroke-linecap="round" stroke-linejoin="round"/><path d="M27.31 42.87c.198-.009.395-.032.59-.07a19.34 19.34 0 01-.43-12.23h-.16m29.51-8.23c-2.77 0-5-3.45-5-6.47m2.49 10.58c-4.85 0-8.79-5.29-8.79-10.58M24.33 76.94l12.84 2.53a61.279 61.279 0 0022.35 0l12.84-2.53m-9.78-2.67v4.6" stroke="#00008F" stroke-width="2" stroke-linecap="round" stroke-linejoin="round"/><path d="M24.33 76.94c0-13.26 10.75-20.46 24-20.46s24 7.2 24 20.46M54.57 57.37a6.23 6.23 0 11-12.45 0M27.81 42.73c-.39.092-.79.14-1.19.14A5.92 5.92 0 0121 36.71a5.92 5.92 0 015.65-6.16c.259.01.516.04.77.09" stroke="#00008F" stroke-width="2" stroke-linecap="round" stroke-linejoin="round"/></svg>
